X: 84
T: The Sentry Box
T: Bonnie Strathyre, Muckin' o' Geordie's Byre, Westering Home
P: piffero primo b0078
%P: piffero primo b0064 on another page, with slightly different ties.
O: safd 021
%R: jig
F: http://ancients.sudburymuster.org/mus/acn/pdf/fyf08F.pdf
F: http://ancients.sudburymuster.org/mus/sng/pdf/sentryboxC0.pdf
Z: 2020 John Chambers <jc:trillian.mit.edu>
M: 6/8
L: 1/8
K: D
(3(d/c/B/ |\
A2)A AFA | d2d def | g2e f2d | (e2d) B2 (3(d/c/B/ |\
A2)A AFA | d2e f2g | afd ABc | d3- d2 :|
|: f |\
ggg ggg | ffff f2f | e2e ede | (f2d) B2 (3(d/c/B/ |\
A2)A AFA | d2e f2g | afd ABc | d3- d2 :|


